X:1
T:Title
%%score { ( 1 3 ) | 2 }
L:1/8
M:4/4
K:F
V:1 treble nm="Grand Piano"
V:3 treble 
V:2 bass 
V:1
 z4 z2[Q:1/4=100] A>G | F2 F2 [DG]>[DF] D>F | C6 F>G | A2 c2 d>c A>F | [EG]6 A>B | %5
 c>c [^Fd]>[Ac] B2 G>A | B>B [Ec]>[GB] A2 A>A | G2 c2 =B>f e>d |[M:3/4] [Ec]6 |[M:1/4] [FA]>[GB] | %10
[M:4/4] [Ac]2 [Ac]2 d>c A>F | G6 z2 | [GB]2 [GB]2 [Ec]>[EB] [EG]>[GB] | A6 z2 | c>c d>c A2 A>G | %15
 [DF]>[DF] [DG]>[DF] [B,D]2 [DF]>[DG] | [CA]2 [Fc]2 [EG]>[GB] [FA]>[EG] |[M:3/4] F6 |] %18
V:2
 z4 z2 [F,CF]>[F,B,C] | [F,A,C]2 [F,A,C]2 [B,,B,]>[B,,B,] [B,,F,B,]>[D,F,B,] | %2
 [F,A,]6 [F,A,C]>[F,B,C] | [F,CF]2 [F,A,F]2 [F,B,F]>[F,A,F] [F,F]>[F,A,] | [C,C]6 [F,CF]>[F,B,F] | %5
 [F,A,F]>[F,A,F] [D,A,]>[D,D][K:treble] [G,DG]2 [B,CE]>[A,C^F] | %6
 [G,CE]>[G,CE][K:bass] [C,C]>[C,C] [F,CF]2 [F,CF]>[F,CF] | %7
 [G,CE]2 [G,CE]2 [G,DF]>[G,=B,G] [G,B,G]>[G,B,F] |[M:3/4][K:bass] [C,C]6 |[M:1/4] [F,C]>[F,C] | %10
[M:4/4] [F,C]2 [F,C]2 [F,B,F]>[F,A,F] [F,CF]>[F,A,] | [C,C]>[C,C] [C,C]>[C,C] [C,C]2 [C,C]>[C,C] | %12
 [C,C]2 [C,C]2 [C,C]>[C,C] [C,C]>[C,C] | [F,CF]>[F,C] [F,C]>[F,C] [F,C]2 [F,CF]>[F,B,F] | %14
 [F,A,F]>[F,A,F] [F,B,F]>[F,A,F] [F,CF]2 [F,C_E]>[F,A,E] | %15
 [B,,B,]>[B,,B,] [B,,B,]>[B,,B,] [B,,F,]2 [B,,F,]>[B,,F,] | %16
 [C,F,]2 [C,A,]2 [C,C]>[C,C] [C,C]>[C,B,] |[M:3/4] [F,A,]>[F,A,] [F,B,]>[F,B,] [F,A,]2 |] %18
V:3
 x8 | x8 | x8 | x8 | x8 | x8 | x8 | x8 |[M:3/4] x6 |[M:1/4] x2 |[M:4/4] x8 | E>E E>E E2 [EG]>[FA] | %12
 x8 | z z/ F/ F>F F2 A>B | x8 | x8 | x8 |[M:3/4] z z/ C/ D>D C2 |] %18

